public/images/frog.svg

<svg preserveAspectRatio="none" viewBox="-20 -10 120 120" fill="none" xmlns="http://www.w3.org/2000/svg">
<path d="M78.9934 58.087C78.9934 72.2749 99.298 90.4907 45.3378 90.4907C-19.4702 90.4907 5.00663 72.2749 5.00663 58.087C5.00663 43.8991 17.2679 32.1118 42 32.1118C66.7321 32.1118 78.9934 43.8991 78.9934 58.087Z" fill="#59A47B"/>
<path d="M72.0105 59.8361C72.0105 71.4714 88.7619 86.4099 44.2444 86.4099C-9.2224 86.4099 10.9711 71.4714 10.9711 59.8361C10.9711 48.2008 21.0867 38.5341 41.4908 38.5341C61.8949 38.5341 72.0105 48.2008 72.0105 59.8361Z" fill="#BFE078"/>
<ellipse cx="42" cy="29.2039" rx="42" ry="24.5104" fill="#59A47B"/>
<ellipse cx="21.1066" cy="10.43" rx="10.8731" ry="10.43" fill="#59A47B"/>
<ellipse cx="64.1726" cy="10.43" rx="10.8731" ry="10.43" fill="#59A47B"/>
<ellipse cx="20.467" cy="9.64771" rx="3.83756" ry="5.99723" fill="#1E1E1E"/>
<ellipse cx="64.3858" cy="9.64771" rx="3.83756" ry="5.99723" fill="#1E1E1E"/>
<ellipse cx="63.1066" cy="7.82247" rx="1.27919" ry="2.08599" fill="#D9D9D9"/>
<ellipse cx="19.1878" cy="7.82247" rx="1.27919" ry="2.08599" fill="#D9D9D9"/>
<ellipse cx="20.467" cy="15.3842" rx="3.83756" ry="1.30374" fill="#E54E85"/>
<ellipse cx="64.3858" cy="15.3842" rx="3.83756" ry="1.30374" fill="#E64E85"/>
<path d="M36.962 15.98L36.6024 16.6611C36.4956 16.8636 36.4176 17.08 36.3709 17.304L36.3296 17.5021C36.2268 17.9951 36.3209 18.5105 36.5894 18.9356V18.9356C36.8294 19.3153 37.1961 19.6008 37.6237 19.739V19.739C37.8187 19.802 38.0225 19.8334 38.2276 19.8322L39.0349 19.8272L39.85 19.8221C40.0498 19.8209 40.2482 19.7869 40.4372 19.7215V19.7215C40.8509 19.5783 41.2 19.2917 41.421 18.9136L41.5691 18.6604C41.7332 18.3796 41.8438 18.0709 41.895 17.75L42.0793 16.5967" stroke="#287048" stroke-width="2" stroke-linecap="round"/>
<path d="M42.5259 16.5493L42.661 17.705C42.7004 18.0419 42.8086 18.3669 42.979 18.6598L43.1238 18.9087C43.3256 19.2555 43.6445 19.5189 44.0233 19.6517V19.6517C44.2066 19.7159 44.3996 19.748 44.594 19.7467L45.3096 19.7416L46.0313 19.7365C46.2215 19.7351 46.4102 19.7001 46.5885 19.6331V19.6331C46.9547 19.4955 47.2589 19.2298 47.4446 18.8853L47.5521 18.686C47.7311 18.3538 47.8226 17.9817 47.8179 17.6048L47.8174 17.5627C47.8125 17.1712 47.7111 16.7872 47.522 16.4447L47.1566 15.7828" stroke="#287048" stroke-width="2" stroke-linecap="round"/>
<path d="M24.4137 82.0033C45.5614 63.6469 30.1235 94 21.2247 94C12.326 94 6.11921 84.8558 6.11921 78.3898C6.11921 71.9239 13.5041 80.5579 15.5742 82.5815C18.5393 72.0301 21.8961 70.8738 24.4137 82.0033Z" fill="#387252"/>
<path d="M68.0089 82.0033C88.7499 63.6469 73.6089 94 64.8813 94C56.1537 94 50.0662 84.8558 50.0662 78.3898C50.0662 71.9239 57.3091 80.5579 59.3394 82.5815C62.2475 72.0301 65.5397 70.8738 68.0089 82.0033Z" fill="#387252"/>
</svg>

<svg xmlns="http://www.w3.org/2000/svg" fill="none" preserveAspectRatio="none" viewBox="-20 -10 120 120">
<path fill="#59A47B" d="M79 58c0 14.3 20.3 32.5-33.7 32.5C-19.5 90.5 5 72.3 5 58s12.3-26 37-26 37 11.8 37 26Z"/>
<path fill="#BFE078" d="M72 59.8c0 11.7 16.8 26.6-27.8 26.6-53.4 0-33.2-15-33.2-26.6 0-11.6 10-21.3 30.5-21.3 20.4 0 30.5 9.7 30.5 21.3Z"/>
<ellipse cx="42" cy="29.2" fill="#59A47B" rx="42" ry="24.5"/>
<ellipse cx="21.1" cy="10.4" fill="#59A47B" rx="10.9" ry="10.4"/>
<ellipse cx="64.2" cy="10.4" fill="#59A47B" rx="10.9" ry="10.4"/>
<ellipse cx="20.5" cy="9.6" fill="#1E1E1E" rx="3.8" ry="6"/>
<ellipse cx="64.4" cy="9.6" fill="#1E1E1E" rx="3.8" ry="6"/>
<ellipse cx="63.1" cy="7.8" fill="#D9D9D9" rx="1.3" ry="2.1"/>
<ellipse cx="19.2" cy="7.8" fill="#D9D9D9" rx="1.3" ry="2.1"/>
<ellipse cx="20.5" cy="15.4" fill="#E54E85" rx="3.8" ry="1.3"/>
<ellipse cx="64.4" cy="15.4" fill="#E64E85" rx="3.8" ry="1.3"/>
<path stroke="#287048" stroke-linecap="round" stroke-width="2" d="m37 16-.4.7-.2.6v.2c-.2.5 0 1 .2 1.4v0c.2.4.6.7 1 .8v0l.6.1h2.2v0c.5-.2.8-.5 1-.9l.2-.2.3-1 .2-1.1m.4-.1.2 1.2c0 .3.1.7.3 1l.1.2c.2.4.5.6 1 .8v0h2.5v0c.4-.2.7-.5.8-.8l.2-.2.2-1.1h0c0-.4 0-.8-.3-1.2l-.3-.6"/>
<path fill="#387252" d="M24.4 82c21.2-18.4 5.7 12-3.2 12s-15-9.1-15-15.6 7.3 2.2 9.4 4.2c3-10.6 6.3-11.7 8.8-.6ZM68 82c20.7-18.4 5.6 12-3.1 12S50 84.9 50 78.4s7.2 2.2 9.2 4.2c3-10.6 6.2-11.7 8.7-.6Z"/>
</svg>
